public/img/ui/courses/relationship.svg

<?xml version="1.0" encoding="UTF-8"?>
<svg viewBox="0 0 100 100" xmlns="http://www.w3.org/2000/svg">
    <g>
        <path
            d="m50 100c-27.57 0-50-22.43-50-50s22.43-50 50-50 50 22.43 50 50-22.43 50-50 50zm0-98c-26.47 0-48 21.53-48 48s21.53 48 48 48 48-21.53 48-48-21.53-48-48-48z"
            fill="#000"/>
        <path
            d="m27.5917 44.4306h26.7944v6.2979c0 1.4601 1.6579 2.2781 2.8177 1.4333l18.6245-13.5674c.9703-.7067.9726-2.1582 0-2.8667l-18.6246-13.5672c-1.17-.8527-2.8177-.0142-2.8177 1.4333v6.2975h-26.7943c-.9792 0-1.7733.7941-1.7733 1.7733v10.9927c0 .9795.7941 1.7733 1.7733 1.7733z"
            fill="#ff2d20"/>
        <path
            d="m74.7843 57.3879h-26.7948v-6.2979c0-1.4472-1.6473-2.2856-2.8173-1.4333l-18.6246 13.5674c-.9726.7084-.9708 2.16 0 2.8667l18.6244 13.5671c1.1666.85 2.8174.02 2.8174-1.4333v-6.2975h26.7948c.9793 0 1.7734-.7941 1.7734-1.7733v-10.9927c0-.9795-.7941-1.7733-1.7734-1.7733z"
            fill="#ff2d20"/>
        <g stroke="#000" stroke-width="2" fill="none">
            <path
                d="m52.4603 27.3254h-26.6316c-1.5621 0-2.8287 1.2666-2.8287 2.8287v11.3362c0 1.5626 1.2667 2.8287 2.8287 2.8287h26.6318v5.4948c0 2.3367 2.6485 3.6311 4.4945 2.2864l19.2065-13.9914c1.5481-1.1275 1.5522-3.4422.0001-4.5729l-.5109.7012.5108-.7012-19.2064-13.991c0-.0001-.0001-.0001-.0002-.0002-1.8677-1.361-4.4946-.0236-4.4946 2.2864z"/>
            <path
                d="m47.8639 78.1691v-5.4943h26.6321c1.5621 0 2.8288-1.2666 2.8288-2.8287v-11.3362c0-1.5626-1.2667-2.8286-2.8287-2.8286h-26.6321v-5.4948c0-2.3098-2.6265-3.6468-4.4941-2.2864v.0001l-19.2066 13.9913c-1.552 1.1304-1.5489 3.4454.0002 4.5731l19.2061 13.9908v.0001c1.8599 1.355 4.4943.035 4.4943-2.2864z"/>
        </g>
    </g>
</svg>

<svg width="100" height="100" viewBox="0 0 100 100" fill="none" xmlns="http://www.w3.org/2000/svg">
<g clip-path="url(#clip0_871_340)">
<path d="M50 100C22.43 100 0 77.57 0 50C0 22.43 22.43 0 50 0C77.57 0 100 22.43 100 50C100 77.57 77.57 100 50 100ZM50 2C23.53 2 2 23.53 2 50C2 76.47 23.53 98 50 98C76.47 98 98 76.47 98 50C98 23.53 76.47 2 50 2Z" fill="black"/>
<path d="M27.5917 44.4306H54.3861V50.7285C54.3861 52.1886 56.044 53.0066 57.2038 52.1618L75.8283 38.5944C76.7986 37.8877 76.8009 36.4362 75.8283 35.7277L57.2037 22.1605C56.0337 21.3078 54.386 22.1463 54.386 23.5938V29.8913H27.5917C26.6125 29.8913 25.8184 30.6854 25.8184 31.6646V42.6573C25.8184 43.6368 26.6125 44.4306 27.5917 44.4306Z" fill="#FF2D20"/>
<path d="M74.7843 57.3879H47.9895V51.09C47.9895 49.6428 46.3422 48.8044 45.1722 49.6567L26.5476 63.2241C25.575 63.9325 25.5768 65.3841 26.5476 66.0908L45.172 79.6579C46.3386 80.5079 47.9894 79.6779 47.9894 78.2246V71.9271H74.7842C75.7635 71.9271 76.5576 71.133 76.5576 70.1538V59.1611C76.5576 58.1816 75.7635 57.3878 74.7842 57.3878L74.7843 57.3879Z" fill="#FF2D20"/>
<path d="M52.4603 27.3254H25.8287C24.2666 27.3254 23 28.592 23 30.1541V41.4903C23 43.0529 24.2667 44.319 25.8287 44.319H52.4605V49.8138C52.4605 52.1505 55.109 53.4449 56.955 52.1002L56.955 52.1002L76.1615 38.1088C77.7096 36.9813 77.7137 34.6666 76.1616 33.5359L75.6507 34.2371L76.1615 33.5359L56.9551 19.5449C56.9551 19.5448 56.955 19.5448 56.9549 19.5447C55.0872 18.1837 52.4603 19.5211 52.4603 21.8311V27.3254Z" stroke="black" stroke-width="2"/>
<path d="M47.8639 78.1691V72.6748H74.496C76.0581 72.6748 77.3248 71.4082 77.3248 69.8461V58.5099C77.3248 56.9473 76.0581 55.6813 74.4961 55.6813H47.864V50.1865C47.864 47.8767 45.2375 46.5397 43.3699 47.9001L43.3699 47.9002L24.1633 61.8915C22.6113 63.0219 22.6144 65.3369 24.1635 66.4646L43.3696 80.4554C43.3696 80.4554 43.3696 80.4555 43.3696 80.4555C45.2295 81.8105 47.8639 80.4905 47.8639 78.1691Z" stroke="black" stroke-width="2"/>
</g>
<defs>
<clipPath id="clip0_871_340">
<rect width="100" height="100" fill="white"/>
</clipPath>
</defs>
</svg>
